SVG/East-West.svg

<svg height="46" viewBox="0 0 34 46" width="34" xmlns="http://www.w3.org/2000/svg" xmlns:xlink="http://www.w3.org/1999/xlink"><filter id="a" height="190%" width="167.5%" x="-33.8%" y="-45%"><feOffset dx="0" dy="1" in="SourceAlpha" result="shadowOffsetOuter1"/><feGaussianBlur in="shadowOffsetOuter1" result="shadowBlurOuter1" stdDeviation=".9"/><feColorMatrix in="shadowBlurOuter1" result="shadowMatrixOuter1" type="matrix" values="0 0 0 0 0   0 0 0 0 0   0 0 0 0 0  0 0 0 0.65 0"/><feMerge><feMergeNode in="shadowMatrixOuter1"/><feMergeNode in="SourceGraphic"/></feMerge></filter><g fill="none" filter="url(#a)" transform="translate(5 7)"><path d="m1.41 6 3.59-3.59v2.59h6v-2.58l3.58 3.58-3.58 3.59v-2.59h-6v2.59zm-1.41 0 6 6v-4h4v4l6-6-6-6v4h-4v-4z" fill="#fff"/><path d="m8.5 7h2.52v2.59l3.56-3.59-3.56-3.58v2.6h-2.52-3.5v-2.6l-3.59 3.58 3.59 3.59v-2.59z" fill="#000"/></g></svg>

<svg width="18" height="18" viewBox="0 0 18 18" xmlns="http://www.w3.org/2000/svg"><defs><filter x="-20%" y="-18.3%" width="140%" height="153.3%" filterUnits="objectBoundingBox" id="a"><feOffset dy="1" in="SourceAlpha" result="shadowOffsetOuter1"/><feGaussianBlur stdDeviation=".9" in="shadowOffsetOuter1" result="shadowBlurOuter1"/><feColorMatrix values="0 0 0 0 0 0 0 0 0 0 0 0 0 0 0 0 0 0 0.65 0" in="shadowBlurOuter1" result="shadowMatrixOuter1"/><feMerge><feMergeNode in="shadowMatrixOuter1"/><feMergeNode in="SourceGraphic"/></feMerge></filter></defs><g filter="url(#a)" transform="translate(1 3)" fill="none"><path d="M1.41 6L5 2.41V5h6V2.42L14.58 6 11 9.59V7H5v2.59L1.41 6zM0 6l6 6V8h4v4l6-6-6-6v4H6V0L0 6z" fill="#FFF"/><path fill="#000" d="M8.5 7h2.52v2.59L14.58 6l-3.56-3.58v2.6H5v-2.6L1.41 6 5 9.59V7z"/></g></svg>
